X: 1
T: The Five Servants
R: polka
M: 2/4
L: 1/8
K: Dmaj
DE|F2 FA|G2 GB|AB cd|e/f/g/e/ d2|
Bc dB|A/B/A/G/ FA|GE FE|1 D2:||2 D2 D2:||
|fd fd|fd f2|e2 ed|e/f/e/d/ Bd|
A>G FG|A/B/A/G/ FA|GE FE|1 D2 D2:||2 D2 :||
